Adwaita++-Dark/actions/22/tools-media-optical-burn-image.svg

<svg height="22" viewBox="0 0 22 22" width="22" xmlns="http://www.w3.org/2000/svg">
  <path d="m5.0117188 1c-.9991994 0-.9980469.9335938-.9980469.9335938-.0015.0033999.0011.6605958 0 .7460937a6.9999955 6.9998286 0 0 1 2.9902343-.6796875 6.9999955 6.9998286 0 0 1 6.9999998 7 6.9999955 6.9998286 0 0 1 -3.398437 5.994141h4.398437s.06325.014999.15625 0c.281-.043999.84375-.234611.84375-.933594v-12.1250001c0-.9332772-1-.9355469-1-.9355469zm1.9882812 2c-3.2934 0-6 2.7066-6 6s2.7066 6 6 6 6-2.7066 6-6-2.7066-6-6-6zm0 4.2851562c.9417 0 1.7148438.7731338 1.7148438 1.7148438 0 .94169-.7731338 1.714844-1.7148438 1.714844-.9417 0-1.7148438-.773144-1.7148438-1.714844s.7731338-1.7148438 1.7148438-1.7148438z" fill="#e6ddff" transform="translate(3 3)"/>
</svg>

<svg xmlns="http://www.w3.org/2000/svg" width="22" height="22" viewBox="0 0 22 22">
 <defs>
  <style id="current-color-scheme" type="text/css">
   .ColorScheme-Text { color:#E6DDFF; } .ColorScheme-Highlight { color:#4285f4; }
  </style>
 </defs>
 <path style="fill:currentColor" class="ColorScheme-Text" d="M 5.0117188 1 C 4.0125194 1 4.0136719 1.9335938 4.0136719 1.9335938 C 4.0121719 1.9369937 4.0147719 2.5941896 4.0136719 2.6796875 A 6.9999955 6.9998286 0 0 1 7.0039062 2 A 6.9999955 6.9998286 0 0 1 14.003906 9 A 6.9999955 6.9998286 0 0 1 10.605469 14.994141 L 15.003906 14.994141 C 15.003906 14.994141 15.067156 15.00914 15.160156 14.994141 C 15.441156 14.950142 16.003906 14.75953 16.003906 14.060547 L 16.003906 1.9355469 C 16.003906 1.0022697 15.003906 1 15.003906 1 L 5.0117188 1 z M 7 3 C 3.7066 3 1 5.7066 1 9 C 1 12.2934 3.7066 15 7 15 C 10.2934 15 13 12.2934 13 9 C 13 5.7066 10.2934 3 7 3 z M 7 7.2851562 C 7.9417 7.2851562 8.7148438 8.05829 8.7148438 9 C 8.7148438 9.94169 7.94171 10.714844 7 10.714844 C 6.0583 10.714844 5.2851562 9.9417 5.2851562 9 C 5.2851562 8.0583 6.05829 7.2851562 7 7.2851562 z" transform="translate(3 3)"/>
</svg>
